X:1
T:Unnamed Reel 1
R:Reel
S:Caro
Z:Gwenael Lambrouin 24/Jan/2004
M:2/2
L:1/8
Q:1/4=120
K:G
% partie A
|: GBAB G2ge | dGBG AGED | GBAB G2ge |1 dBAB G2D/E/F :|2 dBAB G2za
% partie B
|| bggf g2bg | egdg egdg | bggf g2bg | egfa g2za |
 | bggf g2bg | egdg egd2 | ggga gfed | egfa g4 |]
